X: 1
T: the Devil in the Kitchen
C: Trad.
S: from Buddy MacMaster "Judique on the Floor"
N: 2nd time, 1st part down an octave
S: arr. T. Traub 7-1-2012
M: 4/4
L: 1/8
K: Amix
a |:\
"A"e>A A/A/A e>A "G"g>d | "A" e>A A/A/A "G"g2 f<a |\
"A"e>A A/A/A e>A g>d |1 "G"B>G (3dcB g2 f<a :|2 "G"B>G (3dcB g2 |]
f>g |\
"A"a>A A/A/A e>A c>A | "A"a>A A/A/A "G"g2 f>g |\
"A"a>A A/A/A A/A/A c>A | "G"B>G (3dcB g2 |]
f>g |\
"A"a>A A/A/A e>A A/A/A | "A"a>A A/A/A "G"g2 f>g |\
"A"(3agf g>e f>d g>d | "G"B>G (3dcB g2 f<a |]
